X: 42791
T: Whitefish In The Rapids
R: reel
M: 4/4
K: Gminor
BA|:B2FB dBFD|E2GB eBGE|FGFE DFBd|cBAB cBAc|
B2FB dBFD|E2GB eBGE|FGFE DFBd|cAFA B2BA:|
Bcde fB (3BBB|gBaB bB (3BBB|bBgB fBdB|ABcd ecAc|
Bcde fB (3BBB|gBaB bB (3BBB|FGFE DFBd|cAFA BcBA|
Bcde fB (3BBB|gBaB bB (3BBB|bBgB fBdB|ABcd ecAc|
B2FB dBFD|E2GB eBGE|FGFE DFBd|cAFA B4||

